X:59
T:Something Lacking - Paddon
T:Taken down from Joseph Paddon, Holcombe Burnell, By SBG
T:Very difficult to take owing to his varying the key when asked to repeat a verse.
%%VWML:SBG-1-1-283-0
F:http://www.vwml.org/record/SBG/1/1/283
Z:Original Sibleius Transcription by Martin and Shan Graebe
L:1/8
M:6/8
I:linebreak $
K:Bb
F | F G A B3/2 A/ A | B B A B F | G A B c3/2 A/ A | (B3 B2) d | d e f c c d |$ e d c d2 d | 
d c B A G ^F | (d3 d2) B | B A G ^F3/2 =E/ D | G3/2 G/ A d2 B | B3/2 c/ B B A G |$ G d d G2 F | 
F G A B B A | B3/2 B/ c d2 B/ B/ | B c d e e z/ c/ | G G A B3 ||



